vsi/mortar-board_dark.svg

<svg viewBox="0 0 16 16" fill="none" xmlns="http://www.w3.org/2000/svg" height="1em" width="1em">
  <path d="M14.9998 5.66L8.17976 3H7.81976L0.999756 5.66V12H1.99976V7L4.30976 7.9C3.79948 8.62666 3.52381 9.49208 3.51976 10.38C3.50987 10.4898 3.50987 10.6002 3.51976 10.71V10.82L3.79976 11.22L7.77976 13H8.18976L12.1298 11.19L12.4098 10.79V10.67C12.4098 10.57 12.4098 10.46 12.4098 10.35C12.4041 9.46696 12.1323 8.60614 11.6298 7.88L14.9998 6.57V5.66ZM11.4798 10.34V10.41L7.99976 12L4.49976 10.4C4.49508 10.3803 4.49508 10.3597 4.49976 10.34C4.5052 9.56927 4.76932 8.82269 5.24976 8.22L7.82976 9.22H8.18976L10.7498 8.22C11.2258 8.8238 11.4831 9.57112 11.4798 10.34V10.34ZM7.99976 8.25L2.51976 6.12L7.99976 4L13.4798 6.14L7.99976 8.25Z" fill="#C5C5C5"/>
</svg>

<svg viewBox="0 0 16 16" fill="none" xmlns="http://www.w3.org/2000/svg" height="1em" width="1em">
  <path d="M15 5.66 8.18 3h-.36L1 5.66V12h1V7l2.31.9a4.35 4.35 0 0 0-.79 2.48c-.01.11-.01.22 0 .33v.11l.28.4L7.78 13h.41l3.94-1.81.28-.4v-.44a4.39 4.39 0 0 0-.78-2.47L15 6.57v-.91Zm-3.52 4.68v.07L8 12l-3.5-1.6a.13.13 0 0 1 0-.06 3.44 3.44 0 0 1 .75-2.12l2.58 1h.36l2.56-1a3.4 3.4 0 0 1 .73 2.12ZM8 8.25 2.52 6.12 8 4l5.48 2.14L8 8.25Z" fill="#C5C5C5"/>
</svg>
